X: 2578
T: Ballymun Regatta, The
R: slip jig
M: 9/8
K: Edorian
B3 BAF AFE|B3 BAB dBA|B3 BAF AFE|e3 edB ABd|
B3 BAF E3|B3 BAB dBA|B3 BAF AFE|e3 edB ABd||
efg fed efg|a3 bge afd|efg fed edB|dBA FAB def|
e3 fed efg|a3 bge afa|b3 bge a3|efg afd efd||

